X:508
T:Gardeby Ganglat
C:Joe Buchanan's Scottish Tome - Page 485.0
I:485 0
R:Polka
Z:Carl Allison
C:AKA Gärdeby Gånglåt
L:1/8
M:4/4
K:D
FG | (A/B/)A/<F/ (A/B/)A/<F/ | Af/e/ (dc) | (B/d/)B/<G/ (B/d/)B/<G/ | Bg/f/ (ed) |
(c>d) (c>B) | Ag f(e/c/) | d>e (f/e/)f/g/ | a3 FG |
(A/B/)A/<F/ (A/B/)A/<F/ | Af/e/ (dc) | (B/d/)B/<G/ (B/d/)B/<G/ | Bg/f/ (ed) |
(c>d) (c>B) | Ag f(e/c/) | df/d/ (A/c/)e/<c/ | (c/d/ d2) |]
fg | aa f/(d/f/a/) | ba gf | g>f g>a | gf ed |
(c>d) (c>B) | Ag f(e/c/) | d>e (f/e/)f/g/ | a3 (fg) |
aa f/(d/f/a/) | ba gf | g>f g>a | gf ed |
(c>d) (c>B) | Ag f(e/c/) | df/>e/ (f/e/)f/g/ | (c/d/ d2) |]
